assets/images/policy-bg__mob.svg

<svg width="428" height="6635" viewBox="0 0 428 6635" fill="none" xmlns="http://www.w3.org/2000/svg">
<path d="M103.222 6539.27L114.462 6553.91C115.86 6555.73 113.591 6558.08 111.719 6556.76L94.7869 6544.75C92.8788 6543.4 90.5975 6545.86 92.091 6547.66L115.58 6575.97C117.073 6577.77 114.792 6580.23 112.884 6578.88L79.0905 6554.92C77.1519 6553.55 74.8614 6556.1 76.4356 6557.88L104.298 6589.38C105.932 6591.23 103.426 6593.82 101.525 6592.25L71.9887 6567.83C70.0848 6566.25 67.5778 6568.85 69.2201 6570.7L107.128 6613.3L72.8648 6581.72C71.1009 6580.09 68.4919 6582.38 69.8756 6584.34L82.374 6602.04C83.6711 6603.88 81.4181 6606.13 79.5836 6604.83L61.8241 6592.24C59.907 6590.88 57.6228 6593.36 59.1402 6595.16L64.7043 6601.74C66.2218 6603.53 63.9376 6606.02 62.0204 6604.66L53.3243 6598.5" stroke="#FFB75E" stroke-opacity="0.29" stroke-linecap="round"/>
<path d="M350.141 6583.53L338.455 6597.82C337.002 6599.59 334.189 6597.92 335.054 6595.8L342.871 6576.57C343.752 6574.4 340.834 6572.74 339.423 6574.61L317.231 6603.95C315.82 6605.81 312.902 6604.15 313.783 6601.99L329.385 6563.61C330.28 6561.41 327.273 6559.76 325.9 6561.7L301.594 6596.03C300.168 6598.04 297.074 6596.19 298.17 6593.98L315.198 6559.65C316.296 6557.43 313.192 6555.59 311.77 6557.61L278.961 6604.25L301.876 6563.67C303.056 6561.59 300.23 6559.57 298.638 6561.36L284.262 6577.58C282.77 6579.26 280.066 6577.58 280.913 6575.5L289.112 6555.33C289.997 6553.15 287.053 6551.5 285.653 6553.38L280.519 6560.31C279.119 6562.19 276.175 6560.54 277.06 6558.36L281.075 6548.49" stroke="#686868" stroke-opacity="0.29" stroke-linecap="round"/>
<path opacity="0.11" d="M56 47L-8.6668 -18H-44L20.6701 47H56Z" fill="#FFB75E"/>
<path opacity="0.11" d="M60.9543 47L-1 -15H34.679L96 46.3663L60.9543 47Z" fill="#FFB75E"/>
<path d="M407.222 81.265L418.462 95.9073C419.86 97.7275 417.591 100.084 415.719 98.7568L398.787 86.7526C396.879 85.3998 394.597 87.8612 396.091 89.6612L419.58 117.97C421.073 119.77 418.792 122.232 416.884 120.879L383.091 96.921C381.152 95.5466 378.861 98.0974 380.436 99.8775L408.298 131.384C409.932 133.232 407.426 135.822 405.525 134.25L375.989 109.826C374.085 108.252 371.578 110.852 373.22 112.697L411.128 155.296L376.865 123.716C375.101 122.09 372.492 124.381 373.876 126.34L386.374 144.041C387.671 145.878 385.418 148.126 383.584 146.826L365.824 134.235C363.907 132.876 361.623 135.364 363.14 137.158L368.704 143.738C370.222 145.532 367.938 148.02 366.02 146.661L357.324 140.496" stroke="#FFB75E" stroke-opacity="0.29" stroke-linecap="round"/>
<path opacity="0.11" d="M435 526L354.813 446H311L391.191 526H435Z" fill="#FFB75E"/>
<path opacity="0.11" d="M441.644 526L365 450H409.139L485 525.223L441.644 526Z" fill="#FFB75E"/>
<path opacity="0.11" d="M471 3161L379.82 3069H330L421.185 3161H471Z" fill="#FFB75E"/>
<path opacity="0.11" d="M479 4683L367.773 4571H307L418.233 4683H479Z" fill="#FFB75E"/>
<path opacity="0.11" d="M445 4976.38L343.878 4976.38L319 5001.26L444.999 5001.26L445 4991.5L445 4976.38Z" fill="#FFB75E"/>
<path opacity="0.11" d="M77.221 4979.82L-4.67686 4979.63L-26.9997 5001.96L54.9002 5002.14L77.221 4979.82Z" fill="#FFB75E"/>
<path opacity="0.11" d="M-44 4493L68 4604.23L68 4665L-44 4553.77L-44 4493Z" fill="#FFB75E"/>
<path opacity="0.11" d="M-50 3165L41.1802 3073H91L-0.18483 3165H-50Z" fill="#FFB75E"/>
<path opacity="0.11" d="M478.502 3161L391 3073H441.392L528 3160.1L478.502 3161Z" fill="#FFB75E"/>
<path opacity="0.11" d="M488.664 4683L382 4576H443.427L549 4681.91L488.664 4683Z" fill="#FFB75E"/>
<path opacity="0.11" d="M465.5 4969.38L378.155 4969.36L403.298 4944.21L489.751 4944.24L465.5 4969.38Z" fill="#FFB75E"/>
<path opacity="0.11" d="M80.4248 4973.36L2.05296 4973.33L24.6129 4950.77L102.184 4950.8L80.4248 4973.36Z" fill="#FFB75E"/>
<path opacity="0.11" d="M-80 4595.34L27 4702L27 4640.57L-78.9063 4535L-80 4595.34Z" fill="#FFB75E"/>
<path opacity="0.11" d="M-57.5024 3165L30 3077H-20.392L-107 3164.1L-57.5024 3165Z" fill="#FFB75E"/>
<path opacity="0.11" d="M475.223 5180.07L272 5179.88L241.5 5202.21L452.903 5202.39L475.223 5180.07Z" fill="#FFB75E"/>
<path opacity="0.11" d="M530.921 5540L387.353 5683.83L350 5689.61L499.355 5540H530.921Z" fill="#FFB75E"/>
<path opacity="0.11" d="M309 5689.61L452.568 5545.78L489.921 5540L340.566 5689.61H309Z" fill="#FFB75E"/>
<path opacity="0.11" d="M72.921 5637L-70.6471 5780.83L-108 5786.61L41.3548 5637H72.921Z" fill="#FFB75E"/>
<path opacity="0.11" d="M127.723 5180.07L-75.5 5179.88L-106 5202.21L105.403 5202.39L127.723 5180.07Z" fill="#FFB75E"/>
</svg>

<svg width="428" height="6635" fill="none" xmlns="http://www.w3.org/2000/svg"><path d="m103.222 6539.27 11.24 14.64c1.398 1.82-.871 4.17-2.743 2.85l-16.932-12.01c-1.908-1.35-4.19 1.11-2.696 2.91l23.489 28.31c1.493 1.8-.788 4.26-2.696 2.91l-33.793-23.96c-1.94-1.37-4.23 1.18-2.655 2.96l27.862 31.5c1.634 1.85-.872 4.44-2.773 2.87l-29.536-24.42c-1.904-1.58-4.411 1.02-2.769 2.87l37.908 42.6-34.263-31.58c-1.764-1.63-4.373.66-2.99 2.62l12.499 17.7c1.297 1.84-.956 4.09-2.79 2.79l-17.76-12.59c-1.917-1.36-4.201 1.12-2.684 2.92l5.564 6.58c1.518 1.79-.766 4.28-2.684 2.92l-8.696-6.16" stroke="#FFB75E" stroke-opacity=".29" stroke-linecap="round"/><path d="m350.141 6583.53-11.686 14.29c-1.453 1.77-4.266.1-3.401-2.02l7.817-19.23c.881-2.17-2.037-3.83-3.448-1.96l-22.192 29.34c-1.411 1.86-4.329.2-3.448-1.96l15.602-38.38c.895-2.2-2.112-3.85-3.485-1.91l-24.306 34.33c-1.426 2.01-4.52.16-3.424-2.05l17.028-34.33c1.098-2.22-2.006-4.06-3.428-2.04l-32.809 46.64 22.915-40.58c1.18-2.08-1.646-4.1-3.238-2.31l-14.376 16.22c-1.492 1.68-4.196 0-3.349-2.08l8.199-20.17c.885-2.18-2.059-3.83-3.459-1.95l-5.134 6.93c-1.4 1.88-4.344.23-3.459-1.95l4.015-9.87" stroke="#686868" stroke-opacity=".29" stroke-linecap="round"/><path opacity=".11" d="M56 47-8.667-18H-44l64.67 65H56ZM60.954 47-1-15h35.679L96 46.366 60.954 47Z" fill="#FFB75E"/><path d="m407.222 81.265 11.24 14.642c1.398 1.82-.871 4.177-2.743 2.85l-16.932-12.004c-1.908-1.353-4.19 1.108-2.696 2.908l23.489 28.309c1.493 1.8-.788 4.262-2.696 2.909l-33.793-23.958c-1.939-1.374-4.23 1.176-2.655 2.956l27.862 31.507c1.634 1.848-.872 4.438-2.773 2.866l-29.536-24.424c-1.904-1.574-4.411 1.026-2.769 2.871l37.908 42.599-34.263-31.58c-1.764-1.626-4.373.665-2.989 2.624l12.498 17.701c1.297 1.837-.956 4.085-2.79 2.785l-17.76-12.591c-1.917-1.359-4.201 1.129-2.684 2.923l5.564 6.58c1.518 1.794-.766 4.282-2.684 2.923l-8.696-6.165" stroke="#FFB75E" stroke-opacity=".29" stroke-linecap="round"/><path opacity=".11" d="m435 526-80.187-80H311l80.191 80H435ZM441.644 526 365 450h44.139L485 525.223l-43.356.777ZM471 3161l-91.18-92H330l91.185 92H471ZM479 4683l-111.227-112H307l111.233 112H479ZM445 4976.38H343.878L319 5001.26h125.999l.001-9.76v-15.12ZM77.221 4979.82l-81.898-.19L-27 5001.96l81.9.18 22.321-22.32ZM-44 4493l112 111.23V4665l-112-111.23V4493ZM-50 3165l91.18-92H91l-91.185 92H-50ZM478.502 3161 391 3073h50.392L528 3160.1l-49.498.9ZM488.664 4683 382 4576h61.427L549 4681.91l-60.336 1.09ZM465.5 4969.38l-87.345-.02 25.143-25.15 86.453.03-24.251 25.14ZM80.425 4973.36l-78.372-.03 22.56-22.56 77.571.03-21.76 22.56ZM-80 4595.34 27 4702v-61.43L-78.906 4535-80 4595.34ZM-57.502 3165 30 3077h-50.392L-107 3164.1l49.498.9ZM475.223 5180.07 272 5179.88l-30.5 22.33 211.403.18 22.32-22.32ZM530.921 5540l-143.568 143.83-37.353 5.78L499.355 5540h31.566ZM309 5689.61l143.568-143.83 37.353-5.78-149.355 149.61H309ZM72.921 5637l-143.568 143.83-37.353 5.78L41.355 5637H72.92ZM127.723 5180.07l-203.223-.19-30.5 22.33 211.403.18 22.32-22.32Z" fill="#FFB75E"/></svg>
